X:1
T:Title
%%score { ( 1 3 ) | 2 }
L:1/8
M:4/4
K:D
V:1 treble nm="Grand Piano"
V:3 treble 
V:2 bass 
V:1
 z4 z2[Q:1/4=86] DE | FFFF F[FA][FA]F |[M:3/4] GG AB A2 |[M:1/4] F[CE] |[M:4/4] DDDD DDCD | %5
[M:3/4] EE EF [A,CE]2 |[M:1/4] A,A, |[M:4/4] [CE][CE][CE][CE] [CE][DF][EG][EG] | %8
[M:3/4] FF F[EG] [FA]2 |[M:1/4] [FA][FA] |[M:4/4] [FA][FA][=F^G][^FA] [Ac][FA]F[FA] | %11
[M:3/4] [=F^G][GB] [^FA][=FG] ^F2 |[M:1/4] FF |[M:4/4] FFGF [DF][DB][DF][DF] | %14
[M:3/4] [CEF][Fc] [CEF][CEF] [Fd]2 |[M:1/4] [=CFd][CFd] |[M:4/4] [B,Gd][B,Gd][Dc][DB] BAFA | %17
[M:3/4] BA GF z G, |[M:1/4] DE |[M:4/4] FFFF F[FA][FA]F |[M:7/8] GGA B A3 |[M:1/8] A | %22
[M:17/16] BdcBAFD3/2[DE] |[M:7/8] [DF][DA][CE] [CA] D3 |] %24
V:2
 z4 z2 [D,F,][D,G,D] | [D,A,D][D,A,D][D,A,D][D,A,D] [D,A,D][D,D][D,D][D,=CD] | %2
[M:3/4] [D,B,D][D,B,D] [D,A,D][D,G,D] [D,F,D]2 |[M:1/4] [D,A,D][A,,G,] | %4
[M:4/4] [B,,F,B,][B,,F,B,][B,,F,B,][B,,F,B,] [B,,F,B,][B,,F,B,][B,,F,][B,,F,B,] | %5
[M:3/4] [E,^G,D][E,G,D] [E,G,D][E,G,D] A,,2 |[M:1/4] A,,A,, | %7
[M:4/4] [A,,A,][A,,A,][A,,A,][A,,A,] [A,,A,][A,,A,][A,,A,][A,,A,] | %8
[M:3/4] [D,A,D][D,A,D] [D,A,D][D,A,] [D,D]2 |[M:1/4] [D,=C][D,C] | %10
[M:4/4] [C,C][C,C][C,C][C,C] [C,C][C,C][C,A,][C,C] |[M:3/4] [C,C][C,C] [C,C][C,C] [F,A,]2 | %12
[M:1/4] [F,A,][F,A,] |[M:4/4] [F,^A,E][F,A,E][F,A,E][F,A,E] [B,,A,][B,,F,][B,,B,][B,,B,] | %14
[M:3/4] ^A,,[A,,^A,] A,,A,, [B,,B,]2 |[M:1/4] A,,A,, | %16
[M:4/4] G,,G,,[G,,A,][B,,G,] [D,G,D][D,F,D][D,A,D][F,A,D] | %17
[M:3/4] [G,D][F,A,D] [E,A,C][D,A,D] .[A,,A,]2 |[M:1/4] [D,F,][D,G,D] | %19
[M:4/4] [D,A,D][D,A,D][D,A,D][D,A,D] [D,A,D][D,D][D,D][D,=CD] | %20
[M:7/8] [D,B,D][D,B,D][D,A,D] [D,G,D] [D,F,D]3 |[M:1/8] [D,F,D] | %22
[M:17/16] [G,D][E,G,D][G,A,D][G,D][D,F,D][D,A,D][B,,G,]3/2[B,,G,] | %23
[M:7/8] [A,,A,][A,,F,][A,,G,] [A,,G,] [D,F,]3 |] %24
V:3
 x8 | x8 |[M:3/4] x6 |[M:1/4] x2 |[M:4/4] x8 |[M:3/4] x6 |[M:1/4] x2 |[M:4/4] x8 |[M:3/4] x6 | %9
[M:1/4] x2 |[M:4/4] x8 |[M:3/4] x6 |[M:1/4] x2 |[M:4/4] x8 |[M:3/4] x6 |[M:1/4] x2 |[M:4/4] x8 | %17
[M:3/4] z2 z2 [CE]2 |[M:1/4] x2 |[M:4/4] x8 |[M:7/8] x7 |[M:1/8] x |[M:17/16] x17/2 |[M:7/8] x7 |] %24

